svgs/thin/cow.svg

<svg xmlns="http://www.w3.org/2000/svg" viewBox="0 0 640 512"><!--! Font Awesome Pro 6.3.0 by @fontawesome - https://fontawesome.com License - https://fontawesome.com/license (Commercial License) Copyright 2023 Fonticons, Inc. --><path d="M632.5 264.1l-8.5-11.78V177.9c0-8.391-4.281-16.03-11.41-20.42c-7.125-4.359-15.88-4.766-23.25-1c-8.531 4.219-16.28 10.17-23.09 17.77l-59.03-67.17C487.7 80.09 456.2 64 423 64H120C80.31 64 48 96.3 48 136v96.81C20.93 236.7 0 259.9 0 288v24C0 316.4 3.594 320 8 320c30.88 0 56-25.12 56-56v-128c0-28.92 22.12-52.51 50.28-55.42C98.22 93.75 87.74 113.5 87.72 135.8C87.66 237.2 88 424 88 424c0 13.23 10.78 24 23.1 24h56c13.22 0 24-10.77 24-24V336c0-2.695 .5078-5.25 .7969-7.869c11.85 8.822 25.08 15.12 39.2 19.03V376c0 4.422 3.592 8 7.998 8s8.002-3.578 8.002-8v-25.58C253.3 351.1 258.6 352 264 352s10.7-.875 16-1.58V376c0 4.422 3.591 8 7.997 8c4.406 0 8.003-3.578 8.003-8v-28.84c14.12-3.9 27.35-10.2 39.2-19.03c.2891 2.619 .7969 5.174 .7969 7.869v88c0 13.23 10.78 24 24 24h55.1c13.22 0 24.01-10.77 24.01-24V268.9l32 16v36.56c0 14.25 4.156 28.03 11.66 39.23l33.69 62.7C527.6 438.8 544.8 448 563.4 448c26.25 0 49-18.69 54.09-44.42l21.75-108.6C641.4 284.3 638.1 273 632.5 264.1zM48 264c0 19.31-13.75 35.48-32 39.2V288c0-19.31 13.75-35.48 32-39.2V264zM160.9 91.39C163.1 86.14 169.7 80 181 80h166c11.34 0 17.88 6.141 20.06 11.39c2.031 4.984 .8125 10.06-3.438 14.31l-22.88 22.73C320.2 148.8 292.9 160 263.9 160C235.1 160 207.8 148.8 187.3 128.5l-22.91-22.75C160.1 101.5 158.9 96.38 160.9 91.39zM264 336c-25.05 0-48.39-9.191-67.18-25.27C207.1 283.5 233.2 264 264 264s56.9 19.5 67.18 46.73C312.4 326.8 289.1 336 264 336zM601.8 400.5C598.2 418.7 582 432 563.4 432c-13.22 0-25.44-6.516-32.31-16.78l-33.69-62.7c-6.125-9.219-9.375-19.94-9.375-31.02V280c0-3.031-1.719-5.797-4.438-7.156l-48-24C434.4 248.3 433.2 248 432 248c-1.469 0-2.906 .4062-4.219 1.188C425.4 250.7 424 253.2 424 256v168c0 4.406-3.594 8-8 8h-56c-4.406 0-8-3.594-8-8V336c0-6.861-.8799-13.54-2.372-19.96c.0566-.0566-.0566 .0566 0 0l-.2393-.4004C340.2 276.9 305.5 248 264 248S187.9 276.9 178.6 315.6L178.4 316c.0566 .0566-.0566-.0566 0 0C176.9 322.5 176 329.1 176 336l.0026 88c0 4.406-3.594 8-8 8H112c-4.406 0-8-3.594-8-8.016L103.7 135.8c.0273-26.1 19.43-49.55 45.05-54.65c-.8633 1.406-1.975 2.65-2.611 4.193C141.6 96.34 144.2 108.2 153.1 117L176 139.8C199.6 163.2 230.8 176 264.1 176c33.06 0 64.28-12.84 87.91-36.2l22.84-22.75c8.906-8.828 11.53-20.7 6.969-31.75C381 83.35 379.7 81.73 378.6 80h44.46c28.09 0 54.72 13.62 71.75 37.03l65.75 74.88c1.594 1.844 4.125 2.969 6.375 2.703c2.438-.1094 4.688-1.328 6.094-3.297c6.688-9.219 14.56-16.12 23.53-20.55c3.563-1.766 6.563-.375 7.719 .3125c1.125 .7031 3.781 2.766 3.781 6.797v77c0 1.672 .5313 3.312 1.5 4.672l10 13.88c3.844 5.344 5.313 12.03 4.031 18.38L601.8 400.5zM568 320c-8.875 0-16 7.125-16 16s7.125 16 16 16s16-7.125 16-16S576.9 320 568 320z"/></svg>

<svg xmlns="http://www.w3.org/2000/svg" viewBox="0 0 640 512"><!-- Font Awesome Pro 6.0.0-alpha2 by @fontawesome - https://fontawesome.com License - https://fontawesome.com/license (Commercial License) --><path d="M632.514 264.078L624.014 252.297V177.875C624.014 169.484 619.733 161.844 612.607 157.453C605.482 153.094 596.732 152.688 589.357 156.453C580.826 160.672 573.075 166.625 566.263 174.219L507.23 107.047C487.698 80.094 456.198 64 423.009 64H120.003C80.314 64 48.001 96.297 48.001 136V232.809C20.932 236.73 0 259.863 0 288V312C0 316.422 3.594 320 8 320C38.876 320 64.001 294.875 64.001 264V136C64.001 107.082 86.123 83.488 114.286 80.578C98.225 93.748 87.738 113.453 87.721 135.75C87.658 237.188 88.002 424.016 88.002 424C88.002 437.234 98.783 448 112.003 448H168.004C181.223 448 192.004 437.234 192.004 424V336C192.004 333.305 192.512 330.75 192.801 328.131C204.651 336.953 217.882 343.256 232.005 347.156V376C232.005 380.422 235.599 384 240.005 384C244.412 384 248.006 380.422 248.006 376V350.42C253.303 351.125 258.564 352 264.006 352S274.709 351.125 280.006 350.42V376C280.006 380.422 283.6 384 288.006 384S296.007 380.422 296.007 376V347.156C310.13 343.256 323.361 336.953 335.211 328.131C335.5 330.75 336.008 333.305 336.008 336V424C336.008 437.234 346.789 448 360.008 448H416.009C429.228 448 440.01 437.234 440.01 424V268.938L472.011 284.938V321.5C472.011 335.75 476.167 349.531 483.667 360.734L517.355 423.438C527.606 438.812 544.825 448 563.388 448C589.638 448 612.389 429.312 617.483 403.578L639.233 294.969C641.389 284.281 638.952 273.031 632.514 264.078ZM48.001 264C48.001 283.312 34.251 299.484 16 303.203V288C16 268.688 29.751 252.516 48.001 248.797V264ZM160.941 91.391C163.129 86.141 169.66 80 181.004 80H347.008C358.352 80 364.883 86.141 367.071 91.391C369.102 96.375 367.883 101.453 363.633 105.703L340.758 128.437C320.163 148.797 292.944 160 263.881 160C235.068 160 207.848 148.797 187.285 128.453L164.379 105.703C160.129 101.453 158.91 96.375 160.941 91.391ZM264.006 336C238.953 336 215.614 326.809 196.825 310.729C207.108 283.506 233.238 264 264.006 264S320.904 283.504 331.187 310.729C312.4 326.807 289.059 336 264.006 336ZM601.795 400.453C598.17 418.734 582.012 432 563.388 432C550.169 432 537.95 425.484 531.074 415.219L497.386 352.516C491.261 343.297 488.011 332.578 488.011 321.5V280C488.011 276.969 486.292 274.203 483.573 272.844L435.572 248.844C434.447 248.281 433.228 248 432.01 248C430.541 248 429.103 248.406 427.791 249.188C425.447 250.656 424.009 253.234 424.009 256V424C424.009 428.406 420.416 432 416.009 432H360.008C355.602 432 352.008 428.406 352.008 424V336C352.008 329.139 351.037 322.535 349.545 316.121C349.602 316.064 349.67 316.025 349.727 315.969L349.396 315.645C340.156 276.943 305.501 248 264.006 248S187.856 276.943 178.615 315.645L178.285 315.969C178.342 316.025 178.41 316.064 178.467 316.121C176.975 322.535 176.004 329.139 176.004 336V424C176.004 428.406 172.41 432 168.004 432H112.003C107.596 432 104.002 428.406 104.002 423.984C104.002 423.984 103.659 237.188 103.721 135.75C103.748 108.752 123.149 86.195 148.771 81.104C147.908 82.51 146.796 83.754 146.16 85.297C141.597 96.344 144.222 108.219 153.097 117.047L176.004 139.812C199.598 163.156 230.818 176 264.131 176C297.194 176 328.414 163.156 352.039 139.797L374.883 117.047C383.79 108.219 386.415 96.344 381.852 85.297C381.048 83.348 379.716 81.729 378.553 80H423.009C451.104 80 477.729 93.625 494.761 117.031L560.513 191.906C562.106 193.75 564.638 194.875 566.888 194.609C569.325 194.5 571.575 193.281 572.982 191.313C579.669 182.094 587.544 175.188 596.513 170.766C600.076 169 603.076 170.391 604.232 171.078C605.357 171.781 608.014 173.844 608.014 177.875V254.875C608.014 256.547 608.545 258.188 609.514 259.547L619.514 273.422C623.358 278.766 624.826 285.453 623.545 291.797L601.795 400.453ZM568.013 320C559.138 320 552.012 327.125 552.012 336S559.138 352 568.013 352S584.013 344.875 584.013 336S576.888 320 568.013 320Z"/></svg>
